icons/outline/chart-scatter-3d.svg

<!--
tags: [analytics, data, visualization, statistics, scatterplot, dimensions, depth, relationship, distribution, graph]
category: Charts
version: "2.46"
unicode: "fd92"
-->
<svg
  xmlns="http://www.w3.org/2000/svg"
  width="24"
  height="24"
  viewBox="0 0 24 24"
  fill="none"
  stroke="currentColor"
  stroke-width="2"
  stroke-linecap="round"
  stroke-linejoin="round"
>
  <path d="M3 20l9 -7m0 -10v10l9 7m-4 -8v.015m0 -8v.015m4 3.985v.015m-9 10.985v.015m-9 -7.015v.015m4 -4.015v.015m-4 -4.015v.015" />
</svg>

<!--
tags: [analytics, data, visualization, statistics, scatterplot, dimensions, depth, relationship, distribution, graph]
category: Charts
version: "2.46"
unicode: "fd92"
-->
<svg
  xmlns="http://www.w3.org/2000/svg"
  width="24"
  height="24"
  viewBox="0 0 24 24"
  fill="none"
  stroke="currentColor"
  stroke-width="2"
  stroke-linecap="round"
  stroke-linejoin="round"
>
    <path d="M3 20l9 -7M12 3v10l9 7M17 12v.015M17 4.015v.015M21 8.015v.015M12 19.015v.015M3 12.015v.015M7 8.015v.015M3 4.015v.015" />
</svg>
